X:1
T: Sonny's Mazurka
C: Trad
R: Mazurka
M: 3/4
L: 1/8
K: G
Z: ABC transcription by Verge Roller
r: 32
|: GE | "G" DG  GF G2 | "G" DB BA B2 | "D" cB AG FG | "D" AG FE D2 |
"G" DG  GF G2 | "G" DB BA B2 | "D" cB AG FA | "G" G3 z :|
|: Bc | "G" d2 de dc | "G" B2 G2 AB | "Am" c2 cd cB | "D" A3 z Bc |
"G" d2 de dc | "G" B2 G2 AB | "D" cB AG FA | "G" G4 :|
